img/slide10/1498.svg

<svg viewBox="0 0 260 718" xmlns="http://www.w3.org/2000/svg"><g fill="none" fill-rule="nonzero"><path d="m-117.796642 475.350068v-238.466757h-37.977773l-72.225585 51.56038 22.718846 35.108548 40.012296-30.020353v181.818182zm182.76803 0v-39.009498h32.2132892v-40.36635h-32.2132892v-159.090909h-37.9777725l-109.3556396 169.436906v30.020353h101.0480019v39.009498zm-43.0640813-77.001357h-53.0671554l53.0671554-85.651289zm138.5171433 85.651289c18.536769-3.505202 35.688934-9.865446 51.456491-19.080733 15.767557-9.215286 29.218018-20.494119 40.351383-33.836499 11.133366-13.34238 19.836605-28.720035 26.109719-46.132972 6.273114-17.412936 9.409671-35.843508 9.409671-55.291723 0-8.02804-.706432-15.773405-2.119295-23.236092s-3.503902-14.360019-6.273114-20.691995c-2.769212-6.331975-6.075313-12.211668-9.918302-17.639077-3.84299-5.427408-8.222866-10.232925-13.139632-14.416554-4.916765-4.183628-10.229131-7.745364-15.9371-10.68521-5.70797-2.939845-11.868054-5.172998-18.480256-6.699457-6.612201-1.526459-13.422205-2.289688-20.430007-2.289688-11.868054 0-23.057933 1.950475-33.569638 5.851425-10.511705 3.900949-19.582289 9.300089-27.211752 16.197422-7.629464 6.897332-13.648262 15.292854-18.056397 25.186567-4.408134 9.893712-6.612201 20.607191-6.612201 32.140434 0 9.611037 1.243319 18.515379 3.72996 26.713026 2.48664 8.197647 5.962285 15.321121 10.426933 21.37042 4.464648 6.0493 9.748758 11.250565 15.852329 15.6038 6.10357 4.353234 12.772286 7.604024 20.006148 9.752374s14.863325 3.222524 22.88839 3.222524c16.163158 0 30.913453-3.731343 44.250886-11.19403l.339088.169607c-6.781745 16.847579-17.378222 30.642244-31.789431 41.383989-14.411208 10.741745-32.806691 19.22207-55.18645 25.440977zm40.690471-133.649932c-11.868054 0-21.305984-3.363862-28.313786-10.091588s-10.511705-15.405924-10.511705-26.034599c0-10.515604 3.673446-19.419946 11.020336-26.713026s16.954363-10.93962 28.822417-10.93962c11.755024 0 21.447268 4.551107 29.076732 13.653324 7.629463 9.102217 11.444194 21.002939 11.444194 35.702171v2.883311c-5.086308 6.331975-11.302909 11.504974-18.649799 15.518996-7.346889 4.014021-14.976352 6.021031-22.888389 6.021031zm201.078742 127.883311c16.163158 0 30.800426-2.741973 43.911799-8.225916s23.538306-13.511987 31.2808-24.084125c7.742493-10.572139 11.613738-22.755541 11.613738-36.550204 0-15.603799-3.899503-28.833107-11.69851-39.687924s-17.971625-18.600181-30.517853-23.236092v-.508819c8.025064-3.505203 14.976353-9.837178 20.853866-18.99593s8.816269-19.391677 8.816269-30.698779c0-12.777023-3.221329-23.914518-9.663987-33.412483s-15.230669-16.677973-26.364034-21.540027c-11.133366-4.862054-23.877394-7.29308-38.232088-7.29308-14.015608 0-26.533578 2.317957-37.553914 6.953867-11.020335 4.635911-19.836604 11.731118-26.448806 21.285617-6.612201 9.5545-9.918302 20.88987-9.918302 34.006106 0 11.307102 2.967014 21.568296 8.901041 30.783582 5.934027 9.215287 12.857057 15.518996 20.769094 18.911127v.508819c-12.433198 4.635911-22.521044 12.381275-30.263537 23.236092-7.742494 10.854817-11.613739 24.084125-11.613739 39.687924 0 13.568521 3.72996 25.610584 11.18988 36.126188 7.459919 10.515603 17.717309 18.600181 30.772168 24.253731 13.054859 5.653549 27.776897 8.480326 44.166115 8.480326zm0-150.78019c-5.877513 0-11.105108-1.130711-15.682786-3.392131-4.577678-2.261419-8.166352-5.455677-10.76602-9.582768s-3.899503-8.79127-3.899503-13.992537c0-4.975123 1.271577-9.554499 3.814731-13.738127 2.543155-4.183629 6.160084-7.519222 10.850792-10.006785s9.918302-3.731343 15.682786-3.731343c8.703238 0 15.965359 2.600632 21.786356 7.8019 5.820997 5.201267 8.731497 11.759384 8.731497 19.674355 0 7.914972-2.825728 14.388285-8.477182 19.419946-5.651453 5.031661-12.998345 7.54749-22.040671 7.54749zm0 110.413839c-10.850792 0-19.97789-3.307327-27.381296-9.921981s-11.105108-14.840569-11.105108-24.677747c0-10.176391 3.588675-18.543645 10.766021-25.101764s16.417473-9.837178 27.720383-9.837178c7.572949 0 14.269923 1.49819 20.09092 4.494573 5.820997 2.996382 10.342161 7.151742 13.56349 12.466078 3.221329 5.314337 4.831993 11.307102 4.831993 17.978291 0 9.497965-3.61693 17.639077-10.850792 24.423338-7.233862 6.78426-16.445732 10.17639-27.635611 10.17639z" opacity=".2" stroke="#fff" transform="matrix(0 -1 1 0 -228.5 489.5)"/><path d="m55.2394775 267.59673v-68.959128h-6.9385583l-19.3009192 14.223433 4.1044993 6.27793 13.7305273-10.348774v58.806539zm52.6255445 0v-12.163487h10.016933v-7.651227h-10.016933v-49.144414h-7.134011l-33.2268988 50.762943v6.032698h31.9564587v12.163487zm-8.2578619-19.618528h-21.9395258l21.9395258-33.989101zm37.2336719 22.021798c3.615869-.653951 7.142155-1.814714 10.578858-3.482289 3.436704-1.667575 6.686099-3.841961 9.748186-6.523161 3.062087-2.681199 5.741413-5.730245 8.037978-9.147139s4.120787-7.348773 5.472666-11.79564 2.027818-9.106267 2.027818-13.978202c0-4.021798-.618933-7.73297-1.856798-11.133515-1.237864-3.400544-2.939929-6.26158-5.106192-8.583106-2.166263-2.321525-4.723432-4.128065-7.671505-5.419618-2.948072-1.291553-6.11603-1.93733-9.50387-1.93733-4.462828 0-8.502177.980926-12.118046 2.942779-3.615868 1.961853-6.458071 4.667575-8.526608 8.117167-2.068537 3.449591-3.102806 7.283378-3.102806 11.501362 0 4.381471.920254 8.231607 2.760764 11.550409 1.84051 3.318801 4.332527 5.836512 7.476052 7.553133s6.686099 2.574932 10.627722 2.574932c2.215126 0 4.373246-.245232 6.474359-.735695 2.101112-.490463 4.047492-1.19346 5.839139-2.108992 1.791646-.915531 3.420416-2.010899 4.886308-3.286103l.14659.098092c-1.009838 3.694823-2.492018 7.062671-4.446541 10.103543-1.954524 3.040872-4.234801 5.623978-6.840832 7.749319-2.606032 2.12534-5.350508 3.907357-8.233431 5.346049-2.882922 1.438691-5.936865 2.566757-9.161828 3.384196zm10.701016-35.509537c-4.267376 0-7.712223-1.283379-10.334543-3.850136-2.622319-2.566757-3.933478-5.910082-3.933478-10.029973 0-1.99455.374617-3.891008 1.123851-5.689373s1.783502-3.367848 3.102806-4.708447c1.319303-1.340599 2.948072-2.40327 4.886308-3.188011s4.047493-1.177112 6.32777-1.177112c3.029512 0 5.733269.760218 8.111273 2.280654 2.378003 1.520436 4.251088 3.694823 5.619255 6.523161 1.368166 2.828338 2.052249 6.073569 2.052249 9.735695v.53951c-1.791647 2.877384-4.210369 5.190735-7.256168 6.940054s-6.278907 2.623978-9.699323 2.623978zm59.173198 33.694823c4.52798 0 8.624335-.792916 12.289066-2.378746 3.664732-1.585831 6.580229-3.87466 8.746493-6.866486 2.166263-2.991825 3.249395-6.433242 3.249395-10.32425 0-4.54496-1.20529-8.427793-3.615868-11.648502-2.410579-3.220708-5.570392-5.435967-9.479439-6.645776v-.147139c.944686-.326976 1.881229-.80109 2.809627-1.422343.928399-.621254 1.807934-1.389646 2.638607-2.305178.830672-.915531 1.555475-1.920981 2.174407-3.016348.618933-1.095368 1.115707-2.321526 1.490324-3.678474.374618-1.356949.561926-2.754769.561926-4.193461 0-5.231608-1.921948-9.46594-5.765844-12.702997-3.843897-3.237057-8.876795-4.855586-15.098694-4.855586-2.931785 0-5.659974.400545-8.184567 1.201635s-4.715288 1.93733-6.572085 3.408719c-1.856797 1.47139-3.314546 3.318802-4.373246 5.542235-1.058701 2.223433-1.588051 4.692098-1.588051 7.405994 0 3.498637.969118 6.588556 2.907354 9.269755s4.177794 4.463215 6.718674 5.346049v.147139c-3.843896 1.209809-6.971134 3.433242-9.381712 6.6703-2.410579 3.237057-3.615869 7.111716-3.615869 11.623978 0 3.694822 1.017981 7.029972 3.053943 10.005449s4.894453 5.313352 8.575472 7.013624c3.681019 1.700273 7.834381 2.550409 12.460087 2.550409zm.048863-41.591281c-3.74617 0-6.791969-.948228-9.137397-2.844686s-3.518142-4.414169-3.518142-7.553134c0-2.975477 1.180858-5.493188 3.542573-7.553133 2.361716-2.059946 5.399371-3.089918 9.112966-3.089918 3.681019 0 6.726819.997274 9.137397 2.991825 2.410579 1.994551 3.615869 4.54496 3.615869 7.651226 0 3.138965-1.180859 5.656676-3.542574 7.553134-2.361716 1.896458-5.431947 2.844686-9.210692 2.844686zm-.048863 33.940055c-4.397678 0-8.086841-1.217983-11.067489-3.653951s-4.470973-5.501363-4.470973-9.196185c0-3.923706 1.425174-7.111717 4.27552-9.564033 2.850347-2.452316 6.604661-3.678474 11.262942-3.678474 4.690856 0 8.461458 1.226158 11.311805 3.678474 2.850346 2.452316 4.27552 5.640327 4.27552 9.564033 0 3.531335-1.449606 6.555858-4.348815 9.073569-2.89921 2.517711-6.64538 3.776567-11.23851 3.776567z" fill="#fff" transform="matrix(0 -1 1 0 -104 364)"/></g></svg>

<?xml version="1.0" encoding="UTF-8"?>
<svg viewBox="0 0 260 718" version="1.1" xmlns="http://www.w3.org/2000/svg" xmlns:xlink="http://www.w3.org/1999/xlink">
    <title>outlines /vertical 1498</title>
    <g id="outlines-/vertical-1498" stroke="none" stroke-width="1" fill="none" fill-rule="evenodd">
        <path d="M-117.796642,475.350068 L-117.796642,236.883311 L-155.774415,236.883311 L-228,288.443691 L-205.281154,323.552239 L-165.268858,293.531886 L-165.268858,475.350068 L-117.796642,475.350068 Z M64.971388,475.350068 L64.971388,436.34057 L97.1846772,436.34057 L97.1846772,395.97422 L64.971388,395.97422 L64.971388,236.883311 L26.9936155,236.883311 L-82.3620241,406.320217 L-82.3620241,436.34057 L18.6859778,436.34057 L18.6859778,475.350068 L64.971388,475.350068 Z M21.9073067,398.348711 L-31.1598487,398.348711 L21.9073067,312.697422 L21.9073067,398.348711 Z M160.42445,484 C178.961219,480.494798 196.113384,474.134554 211.880941,464.919267 C227.648498,455.703981 241.098959,444.425148 252.232324,431.082768 C263.36569,417.740388 272.068929,402.362733 278.342043,384.949796 C284.615157,367.53686 287.751714,349.106288 287.751714,329.658073 C287.751714,321.630033 287.045282,313.884668 285.632419,306.421981 C284.219556,298.959294 282.128517,292.061962 279.359305,285.729986 C276.590093,279.398011 273.283992,273.518318 269.441003,268.090909 C265.598013,262.663501 261.218137,257.857984 256.301371,253.674355 C251.384606,249.490727 246.07224,245.928991 240.364271,242.989145 C234.656301,240.0493 228.496217,237.816147 221.884015,236.289688 C215.271814,234.763229 208.46181,234 201.454008,234 C189.585954,234 178.396075,235.950475 167.88437,239.851425 C157.372665,243.752374 148.302081,249.151514 140.672618,256.048847 C133.043154,262.946179 127.024356,271.341701 122.616221,281.235414 C118.208087,291.129126 116.00402,301.842605 116.00402,313.375848 C116.00402,322.986885 117.247339,331.891227 119.73398,340.088874 C122.22062,348.286521 125.696265,355.409995 130.160913,361.459294 C134.625561,367.508594 139.909671,372.709859 146.013242,377.063094 C152.116812,381.416328 158.785528,384.667118 166.01939,386.815468 C173.253252,388.963818 180.882715,390.037992 188.90778,390.037992 C205.070938,390.037992 219.821233,386.306649 233.158666,378.843962 L233.497754,379.013569 C226.716009,395.861148 216.119532,409.655813 201.708323,420.397558 C187.297115,431.139303 168.901632,439.619628 146.521873,445.838535 L160.42445,484 Z M201.114921,350.350068 C189.246867,350.350068 179.808937,346.986206 172.801135,340.25848 C165.793333,333.530754 162.28943,324.852556 162.28943,314.223881 C162.28943,303.708277 165.962876,294.803935 173.309766,287.510855 C180.656656,280.217775 190.264129,276.571235 202.132183,276.571235 C213.887207,276.571235 223.579451,281.122342 231.208915,290.224559 C238.838378,299.326776 242.653109,311.227498 242.653109,325.92673 L242.653109,328.810041 C237.566801,335.142016 231.3502,340.315015 224.00331,344.329037 C216.656421,348.343058 209.026958,350.350068 201.114921,350.350068 Z M402.193663,478.233379 C418.356821,478.233379 432.994089,475.491406 446.105462,470.007463 C459.216835,464.52352 469.643768,456.495476 477.386262,445.923338 C485.128755,435.351199 489,423.167797 489,409.373134 C489,393.769335 485.100497,380.540027 477.30149,369.68521 C469.502483,358.830393 459.329865,351.085029 446.783637,346.449118 L446.783637,345.940299 C454.808701,342.435096 461.75999,336.103121 467.637503,326.944369 C473.515016,317.785617 476.453772,307.552692 476.453772,296.24559 C476.453772,283.468567 473.232443,272.331072 466.789785,262.833107 C460.347127,253.335142 451.559116,246.155134 440.425751,241.29308 C429.292385,236.431026 416.548357,234 402.193663,234 C388.178055,234 375.660085,236.317957 364.639749,240.953867 C353.619414,245.589778 344.803145,252.684985 338.190943,262.239484 C331.578742,271.793984 328.272641,283.129354 328.272641,296.24559 C328.272641,307.552692 331.239655,317.813886 337.173682,327.029172 C343.107709,336.244459 350.030739,342.548168 357.942776,345.940299 L357.942776,346.449118 C345.509578,351.085029 335.421732,358.830393 327.679239,369.68521 C319.936745,380.540027 316.0655,393.769335 316.0655,409.373134 C316.0655,422.941655 319.79546,434.983718 327.25538,445.499322 C334.715299,456.014925 344.972689,464.099503 358.027548,469.753053 C371.082407,475.406602 385.804445,478.233379 402.193663,478.233379 Z M402.193663,327.453189 C396.31615,327.453189 391.088555,326.322478 386.510877,324.061058 C381.933199,321.799639 378.344525,318.605381 375.744857,314.47829 C373.145189,310.351199 371.845354,305.68702 371.845354,300.485753 C371.845354,295.51063 373.116931,290.931254 375.660085,286.747626 C378.20324,282.563997 381.820169,279.228404 386.510877,276.740841 C391.201585,274.253278 396.429179,273.009498 402.193663,273.009498 C410.896901,273.009498 418.159022,275.61013 423.980019,280.811398 C429.801016,286.012665 432.711516,292.570782 432.711516,300.485753 C432.711516,308.400725 429.885788,314.874038 424.234334,319.905699 C418.582881,324.93736 411.235989,327.453189 402.193663,327.453189 Z M402.193663,437.867028 C391.342871,437.867028 382.215773,434.559701 374.812367,427.945047 C367.408961,421.330393 363.707259,413.104478 363.707259,403.2673 C363.707259,393.090909 367.295934,384.723655 374.47328,378.165536 C381.650626,371.607417 390.890753,368.328358 402.193663,368.328358 C409.766612,368.328358 416.463586,369.826548 422.284583,372.822931 C428.10558,375.819313 432.626744,379.974673 435.848073,385.289009 C439.069402,390.603346 440.680066,396.596111 440.680066,403.2673 C440.680066,412.765265 437.063136,420.906377 429.829274,427.690638 C422.595412,434.474898 413.383542,437.867028 402.193663,437.867028 Z" id="1498" stroke="#FFFFFF" opacity="0.200000003" fill-rule="nonzero" transform="translate(130.500000, 359.000000) rotate(-90.000000) translate(-130.500000, -359.000000) "></path>
        <path d="M55.2394775,267.59673 L55.2394775,198.637602 L48.3009192,198.637602 L29,212.861035 L33.1044993,219.138965 L46.8350266,208.790191 L46.8350266,267.59673 L55.2394775,267.59673 Z M107.865022,267.59673 L107.865022,255.433243 L117.881955,255.433243 L117.881955,247.782016 L107.865022,247.782016 L107.865022,198.637602 L100.731011,198.637602 L67.5041122,249.400545 L67.5041122,255.433243 L99.4605709,255.433243 L99.4605709,267.59673 L107.865022,267.59673 Z M99.6071601,247.978202 L77.6676343,247.978202 L99.6071601,213.989101 L99.6071601,247.978202 Z M136.840832,270 C140.456701,269.346049 143.982987,268.185286 147.41969,266.517711 C150.856394,264.850136 154.105789,262.67575 157.167876,259.99455 C160.229963,257.313351 162.909289,254.264305 165.205854,250.847411 C167.502419,247.430517 169.326641,243.498638 170.67852,239.051771 C172.030399,234.604904 172.706338,229.945504 172.706338,225.073569 C172.706338,221.051771 172.087405,217.340599 170.84954,213.940054 C169.611676,210.53951 167.909611,207.678474 165.743348,205.356948 C163.577085,203.035423 161.019916,201.228883 158.071843,199.93733 C155.123771,198.645777 151.955813,198 148.567973,198 C144.105145,198 140.065796,198.980926 136.449927,200.942779 C132.834059,202.904632 129.991856,205.610354 127.923319,209.059946 C125.854782,212.509537 124.820513,216.343324 124.820513,220.561308 C124.820513,224.942779 125.740767,228.792915 127.581277,232.111717 C129.421787,235.430518 131.913804,237.948229 135.057329,239.66485 C138.200854,241.381471 141.743428,242.239782 145.685051,242.239782 C147.900177,242.239782 150.058297,241.99455 152.15941,241.504087 C154.260522,241.013624 156.206902,240.310627 157.998549,239.395095 C159.790195,238.479564 161.418965,237.384196 162.884857,236.108992 L163.031447,236.207084 C162.021609,239.901907 160.539429,243.269755 158.584906,246.310627 C156.630382,249.351499 154.350105,251.934605 151.744074,254.059946 C149.138042,256.185286 146.393566,257.967303 143.510643,259.405995 C140.627721,260.844686 137.573778,261.972752 134.348815,262.790191 L136.840832,270 Z M147.541848,234.490463 C143.274472,234.490463 139.829625,233.207084 137.207305,230.640327 C134.584986,228.07357 133.273827,224.730245 133.273827,220.610354 C133.273827,218.615804 133.648444,216.719346 134.397678,214.920981 C135.146912,213.122616 136.18118,211.553133 137.500484,210.212534 C138.819787,208.871935 140.448556,207.809264 142.386792,207.024523 C144.325028,206.239782 146.434285,205.847411 148.714562,205.847411 C151.744074,205.847411 154.447831,206.607629 156.825835,208.128065 C159.203838,209.648501 161.076923,211.822888 162.44509,214.651226 C163.813256,217.479564 164.497339,220.724795 164.497339,224.386921 L164.497339,224.926431 C162.705692,227.803815 160.28697,230.117166 157.241171,231.866485 C154.195372,233.615804 150.962264,234.490463 147.541848,234.490463 Z M206.715046,268.185286 C211.243026,268.185286 215.339381,267.39237 219.004112,265.80654 C222.668844,264.220709 225.584341,261.93188 227.750605,258.940054 C229.916868,255.948229 231,252.506812 231,248.615804 C231,244.070844 229.79471,240.188011 227.384132,236.967302 C224.973553,233.746594 221.81374,231.531335 217.904693,230.321526 L217.904693,230.174387 C218.849379,229.847411 219.785922,229.373297 220.71432,228.752044 C221.642719,228.13079 222.522254,227.362398 223.352927,226.446866 C224.183599,225.531335 224.908402,224.525885 225.527334,223.430518 C226.146267,222.33515 226.643041,221.108992 227.017658,219.752044 C227.392276,218.395095 227.579584,216.997275 227.579584,215.558583 C227.579584,210.326975 225.657636,206.092643 221.81374,202.855586 C217.969843,199.618529 212.936945,198 206.715046,198 C203.783261,198 201.055072,198.400545 198.530479,199.201635 C196.005886,200.002725 193.815191,201.138965 191.958394,202.610354 C190.101597,204.081744 188.643848,205.929156 187.585148,208.152589 C186.526447,210.376022 185.997097,212.844687 185.997097,215.558583 C185.997097,219.05722 186.966215,222.147139 188.904451,224.828338 C190.842687,227.509537 193.082245,229.291553 195.623125,230.174387 L195.623125,230.321526 C191.779229,231.531335 188.651991,233.754768 186.241413,236.991826 C183.830834,240.228883 182.625544,244.103542 182.625544,248.615804 C182.625544,252.310626 183.643525,255.645776 185.679487,258.621253 C187.715449,261.59673 190.57394,263.934605 194.254959,265.634877 C197.935978,267.33515 202.08934,268.185286 206.715046,268.185286 Z M206.763909,226.594005 C203.017739,226.594005 199.97194,225.645777 197.626512,223.749319 C195.281084,221.852861 194.10837,219.33515 194.10837,216.196185 C194.10837,213.220708 195.289228,210.702997 197.650943,208.643052 C200.012659,206.583106 203.050314,205.553134 206.763909,205.553134 C210.444928,205.553134 213.490728,206.550408 215.901306,208.544959 C218.311885,210.53951 219.517175,213.089919 219.517175,216.196185 C219.517175,219.33515 218.336316,221.852861 215.974601,223.749319 C213.612885,225.645777 210.542654,226.594005 206.763909,226.594005 Z M206.715046,260.53406 C202.317368,260.53406 198.628205,259.316077 195.647557,256.880109 C192.666909,254.444141 191.176584,251.378746 191.176584,247.683924 C191.176584,243.760218 192.601758,240.572207 195.452104,238.119891 C198.302451,235.667575 202.056765,234.441417 206.715046,234.441417 C211.405902,234.441417 215.176504,235.667575 218.026851,238.119891 C220.877197,240.572207 222.302371,243.760218 222.302371,247.683924 C222.302371,251.215259 220.852765,254.239782 217.953556,256.757493 C215.054346,259.275204 211.308176,260.53406 206.715046,260.53406 Z" id="1498" fill="#FFFFFF" fill-rule="nonzero" transform="translate(130.000000, 234.000000) rotate(-90.000000) translate(-130.000000, -234.000000) "></path>
    </g>
</svg>
